X: 1
T: Bour\'ee des gars
O: traditional, Morvandelle
R: bourree 3
S: Qu\'ebec City workshop, from Betsy Hooper
M: 3/8
L: 1/16
K: G
D2 |\
"G"G2B2B2 | "D"A2cBAG | "D"F2A2A2 | "G"B2G2 D2 |\
"G"G2B2B2 | "D"A2cBAG | "D"F2A2A2 | "G"G3 :|
|: Bc |\
"G"d4 e2 | "D"A4 AB | "D"c2dcBA | "G"B2G2 Bc |\
"G"d4 e2 | "D"A4 AB | "D"c2dcBA | "G"G3 :|
